;FLAVOR:Marlin
;TIME:1890
;Filament used: 0.86704m
;Layer height: 0.2
;MINX:58.784
;MINY:159.015
;MINZ:0.2
;MAXX:113.384
;MAXY:191.615
;MAXZ:10
;Generated with Cura_SteamEngine 4.11.0
M140 S50
M105
M190 S50
M104 S200
M105
M109 S200
M82 ;absolute extrusion mode
; Ender 3 Custom Start G-code
G92 E0 ; Reset Extruder
G28 ; Home all axes
G1 Z2.0 F3000 ; Move Z Axis up little to prevent scratching of Heat Bed
G1 X0.1 Y20 Z0.3 F5000.0 ; Move to start position
G1 X0.1 Y200.0 Z0.3 F1500.0 E15 ; Draw the first line
G1 X0.4 Y200.0 Z0.3 F5000.0 ; Move to side a little
G1 X0.4 Y20 Z0.3 F1500.0 E30 ; Draw the second line
G92 E0 ; Reset Extruder
G1 Z2.0 F3000 ; Move Z Axis up little to prevent scratching of Heat Bed
G1 X5 Y20 Z0.3 F5000.0 ; Move over to prevent blob squish
G92 E0
G92 E0
G1 F2700 E-5
;LAYER_COUNT:50
;LAYER:0
M107
G0 F6000 X63.806 Y159.572 Z0.2
;TYPE:SKIRT
G1 F2700 E0
G1 F1200 X64.553 Y159.317 E0.02625
G1 X65.322 Y159.138 E0.05251
G1 X66.106 Y159.038 E0.0788
G1 X66.701 Y159.015 E0.09861
G1 X68.971 Y159.015 E0.17411
G1 X69.557 Y159.045 E0.19362
G1 X69.61 Y159.038 E0.1954
G1 X70.205 Y159.015 E0.2152
G1 X105.467 Y159.015 E1.38802
G1 X106.256 Y159.055 E1.4143
G1 X107.036 Y159.174 E1.44054
G1 X107.801 Y159.372 E1.46683
G1 X108.541 Y159.646 E1.49307
G1 X109.25 Y159.994 E1.51934
G1 X109.921 Y160.412 E1.54563
G1 X110.545 Y160.895 E1.57188
G1 X110.982 Y161.3 E1.5917
G1 X111.099 Y161.417 E1.5972
G1 X111.629 Y162.003 E1.62348
G1 X112.096 Y162.639 E1.64972
G1 X112.497 Y163.319 E1.67598
G1 X112.827 Y164.037 E1.70226
G1 X113.082 Y164.784 E1.72851
G1 X113.261 Y165.553 E1.75477
G1 X113.361 Y166.337 E1.78106
G1 X113.384 Y166.932 E1.80087
G1 X113.384 Y183.698 E2.35851
G1 X113.344 Y184.487 E2.38478
G1 X113.225 Y185.267 E2.41102
G1 X113.027 Y186.032 E2.43731
G1 X112.753 Y186.772 E2.46355
G1 X112.405 Y187.481 E2.48982
G1 X111.987 Y188.152 E2.51612
G1 X111.504 Y188.776 E2.54236
G1 X111.099 Y189.213 E2.56218
G1 X110.982 Y189.33 E2.56768
G1 X110.396 Y189.86 E2.59396
G1 X109.76 Y190.327 E2.6202
G1 X109.08 Y190.728 E2.64646
G1 X108.362 Y191.058 E2.67274
G1 X107.615 Y191.313 E2.699
G1 X106.846 Y191.492 E2.72526
G1 X106.062 Y191.592 E2.75154
G1 X105.467 Y191.615 E2.77135
G1 X66.701 Y191.615 E4.06071
G1 X65.912 Y191.575 E4.08699
G1 X65.132 Y191.456 E4.11323
G1 X64.367 Y191.258 E4.13951
G1 X63.627 Y190.984 E4.16576
G1 X62.918 Y190.636 E4.19203
G1 X62.247 Y190.218 E4.21832
G1 X61.623 Y189.735 E4.24457
G1 X61.186 Y189.33 E4.26438
G1 X61.069 Y189.213 E4.26989
G1 X60.539 Y188.627 E4.29617
G1 X60.072 Y187.991 E4.32241
G1 X59.671 Y187.311 E4.34867
G1 X59.341 Y186.593 E4.37495
G1 X59.086 Y185.846 E4.4012
G1 X58.907 Y185.077 E4.42746
G1 X58.807 Y184.293 E4.45375
G1 X58.784 Y183.698 E4.47355
G1 X58.784 Y166.932 E5.03119
G1 X58.824 Y166.143 E5.05747
G1 X58.943 Y165.363 E5.08371
G1 X59.141 Y164.598 E5.10999
G1 X59.415 Y163.858 E5.13624
G1 X59.763 Y163.149 E5.16251
G1 X60.181 Y162.478 E5.1888
G1 X60.664 Y161.854 E5.21505
G1 X61.069 Y161.417 E5.23486
G1 X61.186 Y161.3 E5.24037
G1 X61.772 Y160.77 E5.26665
G1 X62.408 Y160.303 E5.29289
G1 X63.088 Y159.902 E5.31915
G1 X63.806 Y159.572 E5.34543
G0 F6000 X64.029 Y159.914
G1 F1200 X64.76 Y159.674 E5.37102
G1 X65.511 Y159.511 E5.39658
G1 X66.276 Y159.427 E5.42218
G1 X66.701 Y159.415 E5.43632
G1 X68.971 Y159.415 E5.51182
G1 X69.594 Y159.447 E5.53257
G1 X69.78 Y159.427 E5.53879
G1 X70.205 Y159.415 E5.55293
G1 X105.467 Y159.415 E6.72575
G1 X106.235 Y159.455 E6.75133
G1 X106.995 Y159.574 E6.77691
G1 X107.738 Y159.772 E6.80249
G1 X108.457 Y160.046 E6.82808
G1 X109.143 Y160.393 E6.85365
G1 X109.79 Y160.809 E6.87923
G1 X110.39 Y161.29 E6.90481
G1 X110.7 Y161.582 E6.91897
G1 X110.817 Y161.699 E6.92448
G1 X111.331 Y162.271 E6.95006
G1 X111.784 Y162.893 E6.97565
G1 X112.17 Y163.558 E7.00122
G1 X112.485 Y164.26 E7.02681
G1 X112.725 Y164.991 E7.0524
G1 X112.888 Y165.742 E7.07796
G1 X112.972 Y166.507 E7.10356
G1 X112.984 Y166.932 E7.1177
G1 X112.984 Y183.698 E7.67534
G1 X112.944 Y184.466 E7.70092
G1 X112.825 Y185.226 E7.72651
G1 X112.627 Y185.969 E7.75208
G1 X112.353 Y186.688 E7.77767
G1 X112.006 Y187.374 E7.80324
G1 X111.59 Y188.021 E7.82882
G1 X111.109 Y188.621 E7.8544
G1 X110.817 Y188.931 E7.86857
G1 X110.7 Y189.048 E7.87407
G1 X110.128 Y189.562 E7.89965
G1 X109.506 Y190.015 E7.92524
G1 X108.841 Y190.401 E7.95081
G1 X108.139 Y190.716 E7.97641
G1 X107.408 Y190.956 E8.002
G1 X106.657 Y191.119 E8.02756
G1 X105.892 Y191.203 E8.05315
G1 X105.467 Y191.215 E8.06729
G1 X66.701 Y191.215 E9.35666
G1 X65.933 Y191.175 E9.38223
G1 X65.173 Y191.056 E9.40782
G1 X64.43 Y190.858 E9.43339
G1 X63.711 Y190.584 E9.45899
G1 X63.025 Y190.237 E9.48456
G1 X62.378 Y189.821 E9.51014
G1 X61.778 Y189.34 E9.53572
G1 X61.468 Y189.048 E9.54988
G1 X61.351 Y188.931 E9.55538
G1 X60.837 Y188.359 E9.58096
G1 X60.384 Y187.737 E9.60655
G1 X59.998 Y187.072 E9.63213
G1 X59.683 Y186.37 E9.65772
G1 X59.443 Y185.639 E9.68331
G1 X59.28 Y184.888 E9.70887
G1 X59.196 Y184.123 E9.73447
G1 X59.184 Y183.698 E9.74861
G1 X59.184 Y166.932 E10.30625
G1 X59.224 Y166.164 E10.33183
G1 X59.343 Y165.404 E10.35741
G1 X59.541 Y164.661 E10.38299
G1 X59.815 Y163.942 E10.40858
G1 X60.162 Y163.256 E10.43415
G1 X60.578 Y162.609 E10.45973
G1 X61.059 Y162.009 E10.48531
G1 X61.351 Y161.699 E10.49947
G1 X61.468 Y161.582 E10.50498
G1 X62.04 Y161.068 E10.53055
G1 X62.662 Y160.615 E10.55615
G1 X63.327 Y160.229 E10.58172
G1 X64.029 Y159.914 E10.60731
G0 F6000 X64.25 Y160.258
G1 F1200 X64.964 Y160.034 E10.6322
G1 X65.697 Y159.887 E10.65707
G1 X66.701 Y159.815 E10.69054
G1 X68.971 Y159.815 E10.76604
G1 X69.677 Y159.853 E10.78956
G1 X70.205 Y159.815 E10.80717
G1 X105.467 Y159.815 E11.97999
G1 X106.214 Y159.855 E12.00487
G1 X106.952 Y159.974 E12.02973
G1 X107.674 Y160.172 E12.05463
G1 X108.37 Y160.445 E12.0795
G1 X109.033 Y160.792 E12.10439
G1 X109.656 Y161.207 E12.12928
G1 X110.417 Y161.865 E12.16274
G1 X110.534 Y161.982 E12.16825
G1 X111.034 Y162.539 E12.19314
G1 X111.471 Y163.145 E12.21799
G1 X111.842 Y163.795 E12.24288
G1 X112.141 Y164.481 E12.26777
G1 X112.365 Y165.195 E12.29266
G1 X112.512 Y165.928 E12.31753
G1 X112.584 Y166.932 E12.35101
G1 X112.584 Y183.698 E12.90865
G1 X112.544 Y184.445 E12.93353
G1 X112.425 Y185.183 E12.95839
G1 X112.227 Y185.905 E12.98329
G1 X111.954 Y186.601 E13.00816
G1 X111.607 Y187.264 E13.03305
G1 X111.192 Y187.887 E13.05794
G1 X110.534 Y188.648 E13.0914
G1 X110.417 Y188.765 E13.09691
G1 X109.86 Y189.265 E13.1218
G1 X109.254 Y189.702 E13.14665
G1 X108.604 Y190.073 E13.17155
G1 X107.918 Y190.372 E13.19643
G1 X107.204 Y190.596 E13.22132
G1 X106.471 Y190.743 E13.24619
G1 X105.467 Y190.815 E13.27967
G1 X66.701 Y190.815 E14.56903
G1 X65.954 Y190.775 E14.59391
G1 X65.216 Y190.656 E14.61877
G1 X64.494 Y190.458 E14.64367
G1 X63.798 Y190.185 E14.66854
G1 X63.135 Y189.838 E14.69343
G1 X62.512 Y189.423 E14.71833
G1 X61.751 Y188.765 E14.75179
G1 X61.634 Y188.648 E14.75729
G1 X61.134 Y188.091 E14.78219
G1 X60.697 Y187.485 E14.80704
G1 X60.326 Y186.835 E14.83193
G1 X60.027 Y186.149 E14.85682
G1 X59.803 Y185.435 E14.88171
G1 X59.656 Y184.702 E14.90657
G1 X59.584 Y183.698 E14.94005
G1 X59.584 Y166.932 E15.49769
G1 X59.624 Y166.185 E15.52257
G1 X59.743 Y165.447 E15.54743
G1 X59.941 Y164.725 E15.57233
G1 X60.214 Y164.029 E15.5972
G1 X60.561 Y163.366 E15.62209
G1 X60.976 Y162.743 E15.64699
G1 X61.634 Y161.982 E15.68045
G1 X61.751 Y161.865 E15.68595
G1 X62.308 Y161.365 E15.71085
G1 X62.914 Y160.928 E15.7357
G1 X63.564 Y160.557 E15.76059
G1 X64.25 Y160.258 E15.78548
G0 F6000 X64.469 Y160.604
G1 F1200 X65.165 Y160.396 E15.80964
G1 X65.88 Y160.266 E15.83381
G1 X66.701 Y160.215 E15.86117
G1 X68.971 Y160.215 E15.93667
G1 X69.625 Y160.251 E15.95845
G1 X70.205 Y160.215 E15.97778
G1 X105.467 Y160.215 E17.1506
G1 X106.192 Y160.255 E17.17475
G1 X106.909 Y160.374 E17.19893
G1 X107.608 Y160.572 E17.22309
G1 X108.281 Y160.845 E17.24724
G1 X108.92 Y161.19 E17.2714
G1 X109.517 Y161.604 E17.29556
G1 X110.134 Y162.148 E17.32292
G1 X110.251 Y162.265 E17.32842
G1 X110.735 Y162.806 E17.35257
G1 X111.158 Y163.397 E17.37674
G1 X111.512 Y164.031 E17.40089
G1 X111.795 Y164.7 E17.42505
G1 X112.003 Y165.396 E17.44921
G1 X112.133 Y166.111 E17.47338
G1 X112.184 Y166.932 E17.50074
G1 X112.184 Y183.698 E18.05838
G1 X112.144 Y184.423 E18.08253
G1 X112.025 Y185.14 E18.10671
G1 X111.827 Y185.839 E18.13087
G1 X111.554 Y186.512 E18.15502
G1 X111.209 Y187.151 E18.17918
G1 X110.795 Y187.748 E18.20334
G1 X110.251 Y188.365 E18.2307
G1 X110.134 Y188.482 E18.2362
G1 X109.593 Y188.966 E18.26035
G1 X109.002 Y189.389 E18.28452
G1 X108.368 Y189.743 E18.30867
G1 X107.699 Y190.026 E18.33283
G1 X107.003 Y190.234 E18.35699
G1 X106.288 Y190.364 E18.38116
G1 X105.467 Y190.415 E18.40852
G1 X66.701 Y190.415 E19.69788
G1 X65.976 Y190.375 E19.72203
G1 X65.259 Y190.256 E19.74621
G1 X64.56 Y190.058 E19.77037
G1 X63.887 Y189.785 E19.79453
G1 X63.248 Y189.44 E19.81868
G1 X62.651 Y189.026 E19.84284
G1 X62.034 Y188.482 E19.8702
G1 X61.917 Y188.365 E19.87571
G1 X61.433 Y187.824 E19.89985
G1 X61.01 Y187.233 E19.92402
G1 X60.656 Y186.599 E19.94817
G1 X60.373 Y185.93 E19.97233
G1 X60.165 Y185.234 E19.9965
G1 X60.035 Y184.519 E20.02067
G1 X59.984 Y183.698 E20.04803
G1 X59.984 Y166.932 E20.60566
G1 X60.024 Y166.207 E20.62981
G1 X60.143 Y165.49 E20.65399
G1 X60.341 Y164.791 E20.67815
G1 X60.614 Y164.118 E20.70231
G1 X60.959 Y163.479 E20.72646
G1 X61.373 Y162.882 E20.75062
G1 X61.917 Y162.265 E20.77798
G1 X62.034 Y162.148 E20.78349
G1 X62.575 Y161.664 E20.80763
G1 X63.166 Y161.241 E20.8318
G1 X63.8 Y160.887 E20.85595
G1 X64.469 Y160.604 E20.88011
G0 F6000 X64.686 Y160.951
G1 F1200 X65.364 Y160.761 E20.90353
G1 X66.059 Y160.648 E20.92695
G1 X66.701 Y160.615 E20.94833
G1 X68.971 Y160.615 E21.02383
G1 X69.563 Y160.648 E21.04356
G1 X70.205 Y160.615 E21.06494
G1 X105.467 Y160.615 E22.23776
G1 X106.17 Y160.655 E22.26117
G1 X106.864 Y160.774 E22.28459
G1 X107.539 Y160.972 E22.30799
G1 X108.188 Y161.244 E22.3314
G1 X108.802 Y161.589 E22.35482
G1 X109.373 Y162 E22.37822
G1 X109.851 Y162.431 E22.39963
G1 X109.968 Y162.548 E22.40513
G1 X110.437 Y163.073 E22.42854
G1 X110.843 Y163.648 E22.45196
G1 X111.181 Y164.266 E22.47538
G1 X111.448 Y164.917 E22.49879
G1 X111.638 Y165.595 E22.52221
G1 X111.751 Y166.29 E22.54563
G1 X111.784 Y166.932 E22.56701
G1 X111.784 Y183.698 E23.12465
G1 X111.744 Y184.401 E23.14807
G1 X111.625 Y185.095 E23.17149
G1 X111.427 Y185.77 E23.19488
G1 X111.155 Y186.419 E23.21829
G1 X110.81 Y187.033 E23.24171
G1 X110.399 Y187.604 E23.26511
G1 X109.968 Y188.082 E23.28652
G1 X109.851 Y188.199 E23.29202
G1 X109.326 Y188.668 E23.31544
G1 X108.751 Y189.074 E23.33885
G1 X108.133 Y189.412 E23.36228
G1 X107.482 Y189.679 E23.38568
G1 X106.804 Y189.869 E23.4091
G1 X106.109 Y189.982 E23.43252
G1 X105.467 Y190.015 E23.4539
G1 X66.701 Y190.015 E24.74326
G1 X65.998 Y189.975 E24.76668
G1 X65.304 Y189.856 E24.7901
G1 X64.629 Y189.658 E24.8135
G1 X63.98 Y189.386 E24.8369
G1 X63.366 Y189.041 E24.86033
G1 X62.795 Y188.63 E24.88373
G1 X62.317 Y188.199 E24.90513
G1 X62.2 Y188.082 E24.91064
G1 X61.731 Y187.557 E24.93405
G1 X61.325 Y186.982 E24.95746
G1 X60.987 Y186.364 E24.98089
G1 X60.72 Y185.713 E25.00429
G1 X60.53 Y185.035 E25.02771
G1 X60.417 Y184.34 E25.05113
G1 X60.384 Y183.698 E25.07251
G1 X60.384 Y166.932 E25.63015
G1 X60.424 Y166.229 E25.65357
G1 X60.543 Y165.535 E25.67699
G1 X60.741 Y164.86 E25.70039
G1 X61.013 Y164.211 E25.72379
G1 X61.358 Y163.597 E25.74722
G1 X61.769 Y163.026 E25.77062
G1 X62.2 Y162.548 E25.79202
G1 X62.317 Y162.431 E25.79753
G1 X62.842 Y161.962 E25.82094
G1 X63.417 Y161.556 E25.84435
G1 X64.035 Y161.218 E25.86778
G1 X64.686 Y160.951 E25.89118
G0 F6000 X64.267 Y161.55
G1 F1200 X64.901 Y161.301 E25.91384
G1 X65.56 Y161.128 E25.9365
G1 X66.234 Y161.034 E25.95913
G1 X66.701 Y161.015 E25.97468
G1 X68.971 Y161.015 E26.05018
G1 X69.606 Y161.052 E26.07134
G1 X69.738 Y161.034 E26.07577
G1 X70.205 Y161.015 E26.09131
G1 X105.467 Y161.015 E27.26413
G1 X106.147 Y161.055 E27.28679
G1 X106.817 Y161.174 E27.30942
G1 X107.469 Y161.371 E27.33207
G1 X108.093 Y161.643 E27.35471
G1 X108.681 Y161.987 E27.37737
G1 X109.225 Y162.397 E27.40003
G1 X109.568 Y162.714 E27.41556
G1 X109.685 Y162.831 E27.42107
G1 X110.138 Y163.34 E27.44373
G1 X110.527 Y163.898 E27.46635
G1 X110.849 Y164.498 E27.489
G1 X111.098 Y165.132 E27.51166
G1 X111.271 Y165.791 E27.53432
G1 X111.365 Y166.465 E27.55695
G1 X111.384 Y166.932 E27.5725
G1 X111.384 Y183.698 E28.13014
G1 X111.344 Y184.378 E28.15279
G1 X111.225 Y185.048 E28.17543
G1 X111.028 Y185.7 E28.19808
G1 X110.756 Y186.324 E28.22072
G1 X110.412 Y186.912 E28.24338
G1 X110.002 Y187.456 E28.26603
G1 X109.685 Y187.799 E28.28157
G1 X109.568 Y187.916 E28.28707
G1 X109.059 Y188.369 E28.30974
G1 X108.501 Y188.758 E28.33236
G1 X107.901 Y189.08 E28.35501
G1 X107.267 Y189.329 E28.37766
G1 X106.608 Y189.502 E28.40032
G1 X105.934 Y189.596 E28.42296
G1 X105.467 Y189.615 E28.4385
G1 X66.701 Y189.615 E29.72787
G1 X66.021 Y189.575 E29.75052
G1 X65.351 Y189.456 E29.77315
G1 X64.699 Y189.259 E29.79581
G1 X64.075 Y188.987 E29.81845
G1 X63.487 Y188.643 E29.84111
G1 X62.943 Y188.233 E29.86376
G1 X62.6 Y187.916 E29.8793
G1 X62.483 Y187.799 E29.8848
G1 X62.03 Y187.29 E29.90746
G1 X61.641 Y186.732 E29.93009
G1 X61.319 Y186.132 E29.95274
G1 X61.07 Y185.498 E29.97539
G1 X60.897 Y184.839 E29.99805
G1 X60.803 Y184.165 E30.02069
G1 X60.784 Y183.698 E30.03623
G1 X60.784 Y166.932 E30.59387
G1 X60.824 Y166.252 E30.61653
G1 X60.943 Y165.582 E30.63916
G1 X61.14 Y164.93 E30.66181
G1 X61.412 Y164.306 E30.68445
G1 X61.756 Y163.718 E30.70711
G1 X62.166 Y163.174 E30.72977
G1 X62.483 Y162.831 E30.7453
G1 X62.6 Y162.714 E30.75081
G1 X63.109 Y162.261 E30.77347
G1 X63.667 Y161.872 E30.79609
G1 X64.267 Y161.55 E30.81874
G0 F6000 X64.498 Y161.885
G1 F1200 X65.113 Y161.654 E30.84059
G1 X65.752 Y161.499 E30.86246
G1 X66.701 Y161.415 E30.89415
G1 X68.971 Y161.415 E30.96965
G1 X69.627 Y161.455 E30.99151
G1 X69.668 Y161.463 E30.9929
G1 X70.205 Y161.415 E31.01083
G1 X105.467 Y161.415 E32.18365
G1 X106.123 Y161.455 E32.20551
G1 X106.769 Y161.574 E32.22736
G1 X107.396 Y161.771 E32.24921
G1 X107.994 Y162.043 E32.27107
G1 X108.555 Y162.385 E32.29292
G1 X109.285 Y162.997 E32.3246
G1 X109.402 Y163.114 E32.3301
G1 X109.838 Y163.606 E32.35197
G1 X110.21 Y164.147 E32.37381
G1 X110.514 Y164.729 E32.39565
G1 X110.745 Y165.344 E32.4175
G1 X110.9 Y165.983 E32.43937
G1 X110.984 Y166.932 E32.47105
G1 X110.984 Y183.698 E33.02869
G1 X110.944 Y184.354 E33.05055
G1 X110.825 Y185 E33.0724
G1 X110.628 Y185.627 E33.09426
G1 X110.356 Y186.225 E33.11611
G1 X110.014 Y186.786 E33.13796
G1 X109.402 Y187.516 E33.16965
G1 X109.285 Y187.633 E33.17515
G1 X108.793 Y188.069 E33.19701
G1 X108.252 Y188.441 E33.21885
G1 X107.67 Y188.745 E33.24069
G1 X107.055 Y188.976 E33.26254
G1 X106.416 Y189.131 E33.28441
G1 X105.467 Y189.215 E33.3161
G1 X66.701 Y189.215 E34.60546
G1 X66.045 Y189.175 E34.62732
G1 X65.399 Y189.056 E34.64917
G1 X64.772 Y188.859 E34.67103
G1 X64.174 Y188.587 E34.69288
G1 X63.613 Y188.245 E34.71473
G1 X62.883 Y187.633 E34.74641
G1 X62.766 Y187.516 E34.75192
G1 X62.33 Y187.024 E34.77378
G1 X61.958 Y186.483 E34.79562
G1 X61.654 Y185.901 E34.81746
G1 X61.423 Y185.286 E34.83931
G1 X61.268 Y184.647 E34.86118
G1 X61.184 Y183.698 E34.89286
G1 X61.184 Y166.932 E35.4505
G1 X61.224 Y166.276 E35.47236
G1 X61.343 Y165.63 E35.49421
G1 X61.54 Y165.003 E35.51607
G1 X61.812 Y164.405 E35.53792
G1 X62.154 Y163.844 E35.55977
G1 X62.766 Y163.114 E35.59146
G1 X62.883 Y162.997 E35.59696
G1 X63.375 Y162.561 E35.61882
G1 X63.916 Y162.189 E35.64066
G1 X64.498 Y161.885 E35.6625
G0 F6000 X64.727 Y162.221
G1 F1200 X65.322 Y162.009 E35.68351
G1 X65.94 Y161.873 E35.70455
G1 X66.701 Y161.815 E35.72994
G1 X68.971 Y161.815 E35.80544
G1 X69.602 Y161.855 E35.82647
G1 X69.624 Y161.859 E35.82721
G1 X70.205 Y161.815 E35.84659
G1 X105.467 Y161.815 E37.01941
G1 X106.098 Y161.855 E37.04044
G1 X106.719 Y161.974 E37.06147
G1 X107.319 Y162.171 E37.08247
G1 X107.891 Y162.442 E37.10353
G1 X108.423 Y162.782 E37.12453
G1 X109.003 Y163.279 E37.14993
G1 X109.12 Y163.396 E37.15543
G1 X109.537 Y163.871 E37.17646
