;FLAVOR:Marlin
;TIME:2531
;Filament used: 1.17315m
;Layer height: 0.2
;MINX:91.7
;MINY:104.588
;MINZ:0.2
;MAXX:143.3
;MAXY:130.387
;MAXZ:31
;Generated with Cura_SteamEngine 4.11.0
M140 S50
M105
M190 S50
M104 S200
M105
M109 S200
M82 ;absolute extrusion mode
; Ender 3 Custom Start G-code
G92 E0 ; Reset Extruder
G28 ; Home all axes
G1 Z2.0 F3000 ; Move Z Axis up little to prevent scratching of Heat Bed
G1 X0.1 Y20 Z0.3 F5000.0 ; Move to start position
G1 X0.1 Y200.0 Z0.3 F1500.0 E15 ; Draw the first line
G1 X0.4 Y200.0 Z0.3 F5000.0 ; Move to side a little
G1 X0.4 Y20 Z0.3 F1500.0 E30 ; Draw the second line
G92 E0 ; Reset Extruder
G1 Z2.0 F3000 ; Move Z Axis up little to prevent scratching of Heat Bed
G1 X5 Y20 Z0.3 F5000.0 ; Move over to prevent blob squish
G92 E0
G92 E0
G1 F2700 E-5
;LAYER_COUNT:155
;LAYER:0
M107
G0 F6000 X94.672 Y107.676 Z0.2
;TYPE:SKIRT
G1 F2700 E0
G1 F1200 X95.305 Y107.204 E0.02626
G1 X95.983 Y106.798 E0.05255
G1 X96.698 Y106.463 E0.07881
G1 X97.443 Y106.203 E0.10505
G1 X98.211 Y106.019 E0.13132
G1 X98.994 Y105.913 E0.1576
G1 X99.595 Y105.886 E0.17761
G1 X99.78 Y105.885 E0.18376
G1 X100.055 Y105.734 E0.1942
G1 X100.449 Y105.531 E0.20894
G1 X101.168 Y105.206 E0.23518
G1 X101.662 Y105.03 E0.25262
G1 X102.425 Y104.827 E0.27888
G1 X102.838 Y104.751 E0.29285
G1 X103.258 Y104.685 E0.30699
G1 X104.043 Y104.602 E0.33325
G1 X104.468 Y104.59 E0.34739
G1 X130.506 Y104.588 E1.21342
G1 X131.295 Y104.628 E1.23969
G1 X131.719 Y104.683 E1.25391
G1 X132.164 Y104.753 E1.2689
G1 X132.937 Y104.915 E1.29516
G1 X133.517 Y105.092 E1.31533
G1 X134.531 Y105.522 E1.35197
G1 X134.847 Y105.683 E1.36376
G1 X135.383 Y105.683 E1.38159
G1 X136.172 Y105.723 E1.40786
G1 X136.952 Y105.842 E1.43411
G1 X137.717 Y106.04 E1.46039
G1 X138.457 Y106.314 E1.48664
G1 X139.166 Y106.662 E1.5129
G1 X139.837 Y107.08 E1.5392
G1 X140.461 Y107.563 E1.56544
G1 X140.898 Y107.968 E1.58526
G1 X141.015 Y108.085 E1.59076
G1 X141.545 Y108.671 E1.61704
G1 X142.012 Y109.307 E1.64329
G1 X142.413 Y109.987 E1.66954
G1 X142.743 Y110.705 E1.69583
G1 X142.998 Y111.452 E1.72208
G1 X143.177 Y112.221 E1.74834
G1 X143.277 Y113.005 E1.77463
G1 X143.3 Y113.6 E1.79443
G1 X143.3 Y116.398 E1.88749
G1 X143.26 Y117.187 E1.91377
G1 X143.141 Y117.967 E1.94001
G1 X142.943 Y118.732 E1.9663
G1 X142.669 Y119.472 E1.99254
G1 X142.321 Y120.181 E2.01881
G1 X141.903 Y120.852 E2.0451
G1 X141.42 Y121.476 E2.07135
G1 X141.039 Y121.89 E2.09006
G1 X140.922 Y122.008 E2.09559
G1 X140.338 Y122.54 E2.12186
G1 X139.704 Y123.01 E2.14811
G1 X139.025 Y123.414 E2.17439
G1 X138.309 Y123.746 E2.20064
G1 X138.081 Y123.825 E2.20867
G1 X137.977 Y124.08 E2.21783
G1 X137.636 Y124.792 E2.24408
G1 X137.226 Y125.467 E2.27035
G1 X136.833 Y125.985 E2.29198
G1 X136.492 Y126.509 E2.31277
G1 X135.996 Y127.123 E2.33902
G1 X135.303 Y127.808 E2.37143
G1 X134.954 Y128.112 E2.38683
G1 X134.333 Y128.599 E2.41308
G1 X133.666 Y129.022 E2.43934
G1 X132.796 Y129.445 E2.47152
G1 X132.212 Y129.685 E2.49252
G1 X131.467 Y129.947 E2.51879
G1 X131.031 Y130.063 E2.53379
G1 X130.665 Y130.149 E2.5463
G1 X129.888 Y130.291 E2.57257
G1 X129.482 Y130.333 E2.58614
G1 X129.094 Y130.363 E2.59909
G1 X128.493 Y130.386 E2.61909
G1 X106.482 Y130.387 E3.35118
G1 X105.877 Y130.363 E3.37132
G1 X105.53 Y130.336 E3.38289
G1 X104.747 Y130.235 E3.40915
G1 X104.352 Y130.153 E3.42257
G1 X103.956 Y130.06 E3.4361
G1 X103.197 Y129.841 E3.46237
G1 X102.726 Y129.662 E3.47913
G1 X102.172 Y129.43 E3.49911
G1 X101.46 Y129.088 E3.52538
G1 X100.786 Y128.676 E3.55166
G1 X100.137 Y128.181 E3.5788
G1 X99.541 Y127.675 E3.60481
G1 X98.965 Y127.134 E3.63109
G1 X98.448 Y126.538 E3.65733
G1 X97.925 Y125.782 E3.68791
G1 X97.627 Y125.292 E3.70698
G1 X97.251 Y124.597 E3.73326
G1 X97.075 Y124.2 E3.74771
G1 X96.917 Y123.815 E3.76155
G1 X96.839 Y123.594 E3.76934
G1 X96.543 Y123.484 E3.77985
G1 X95.834 Y123.136 E3.80612
G1 X95.163 Y122.718 E3.83241
G1 X94.539 Y122.235 E3.85865
G1 X94.102 Y121.83 E3.87847
G1 X93.985 Y121.713 E3.88397
G1 X93.455 Y121.127 E3.91025
G1 X92.988 Y120.491 E3.9365
G1 X92.587 Y119.811 E3.96275
G1 X92.257 Y119.093 E3.98904
G1 X92.002 Y118.346 E4.01529
G1 X91.823 Y117.577 E4.04155
G1 X91.723 Y116.793 E4.06784
G1 X91.7 Y116.198 E4.08764
G1 X91.7 Y113.831 E4.16637
G1 X91.74 Y113.042 E4.19264
G1 X91.859 Y112.262 E4.21889
G1 X92.057 Y111.497 E4.24517
G1 X92.331 Y110.757 E4.27142
G1 X92.679 Y110.048 E4.29768
G1 X93.097 Y109.377 E4.32398
G1 X93.58 Y108.753 E4.35022
G1 X93.946 Y108.354 E4.36823
G1 X94.089 Y108.209 E4.37501
G1 X94.672 Y107.676 E4.40128
G0 F6000 X94.942 Y107.971
G1 F1200 X95.561 Y107.514 E4.42687
G1 X96.223 Y107.124 E4.45242
G1 X96.923 Y106.804 E4.47802
G1 X97.652 Y106.559 E4.5036
G1 X98.403 Y106.391 E4.5292
G1 X99.167 Y106.301 E4.55479
G1 X99.597 Y106.286 E4.5691
G1 X99.924 Y106.284 E4.57997
G1 X100.238 Y106.09 E4.59225
G1 X100.632 Y105.887 E4.60699
G1 X101.333 Y105.571 E4.63257
G1 X101.785 Y105.411 E4.64851
G1 X102.9 Y105.146 E4.68663
G1 X103.32 Y105.08 E4.70077
G1 X104.468 Y104.99 E4.73907
G1 X130.506 Y104.988 E5.6051
G1 X131.275 Y105.028 E5.63071
G1 X131.657 Y105.078 E5.64352
G1 X132.102 Y105.148 E5.65851
G1 X132.854 Y105.307 E5.68407
G1 X133.387 Y105.47 E5.70261
G1 X134.349 Y105.878 E5.73736
G1 X134.75 Y106.083 E5.75234
G1 X135.383 Y106.083 E5.7734
G1 X136.151 Y106.123 E5.79898
G1 X136.911 Y106.242 E5.82456
G1 X137.654 Y106.44 E5.85014
G1 X138.373 Y106.714 E5.87573
G1 X139.059 Y107.061 E5.9013
G1 X139.706 Y107.477 E5.92688
G1 X140.306 Y107.958 E5.95246
G1 X140.616 Y108.25 E5.96662
G1 X140.733 Y108.367 E5.97213
G1 X141.247 Y108.939 E5.9977
G1 X141.7 Y109.561 E6.0233
G1 X142.086 Y110.226 E6.04887
G1 X142.401 Y110.928 E6.07446
G1 X142.641 Y111.659 E6.10005
G1 X142.804 Y112.41 E6.12561
G1 X142.888 Y113.175 E6.15121
G1 X142.9 Y113.6 E6.16535
G1 X142.9 Y116.398 E6.25841
G1 X142.86 Y117.166 E6.28399
G1 X142.741 Y117.926 E6.30958
G1 X142.543 Y118.669 E6.33515
G1 X142.269 Y119.388 E6.36074
G1 X141.922 Y120.074 E6.38631
G1 X141.506 Y120.721 E6.41189
G1 X141.025 Y121.321 E6.43747
G1 X140.755 Y121.608 E6.45058
G1 X140.638 Y121.726 E6.4561
G1 X140.069 Y122.244 E6.4817
G1 X139.449 Y122.699 E6.50728
G1 X138.785 Y123.088 E6.53287
G1 X138.085 Y123.405 E6.55843
G1 X137.775 Y123.508 E6.56929
G1 X137.608 Y123.926 E6.58427
G1 X137.275 Y124.619 E6.60984
G1 X136.872 Y125.274 E6.63542
G1 X136.535 Y125.713 E6.65382
G1 X136.133 Y126.322 E6.67809
G1 X135.644 Y126.916 E6.70368
G1 X135.04 Y127.506 E6.73177
G1 X134.691 Y127.81 E6.74716
G1 X134.086 Y128.284 E6.77272
G1 X133.435 Y128.693 E6.79829
G1 X132.644 Y129.075 E6.82751
G1 X132.06 Y129.315 E6.84851
G1 X131.334 Y129.57 E6.8741
G1 X130.94 Y129.674 E6.88766
G1 X130.574 Y129.76 E6.90016
G1 X129.451 Y129.934 E6.93796
G1 X129.063 Y129.964 E6.9509
G1 X128.493 Y129.986 E6.96987
G1 X106.482 Y129.987 E7.70196
G1 X105.908 Y129.965 E7.72107
G1 X105.561 Y129.938 E7.73265
G1 X104.443 Y129.764 E7.77028
G1 X104.047 Y129.671 E7.78381
G1 X103.309 Y129.456 E7.80937
G1 X102.881 Y129.293 E7.82461
G1 X102.327 Y129.061 E7.84458
G1 X101.634 Y128.727 E7.87017
G1 X100.979 Y128.323 E7.89577
G1 X100.396 Y127.876 E7.9202
G1 X99.8 Y127.37 E7.9462
G1 X99.24 Y126.843 E7.97178
G1 X98.738 Y126.26 E7.99737
G1 X98.266 Y125.574 E8.02506
G1 X97.968 Y125.084 E8.04414
G1 X97.603 Y124.407 E8.06972
G1 X97.445 Y124.048 E8.08277
G1 X97.287 Y123.663 E8.09661
G1 X97.154 Y123.285 E8.10993
G1 X96.627 Y123.084 E8.12869
G1 X95.941 Y122.737 E8.15426
G1 X95.294 Y122.321 E8.17985
G1 X94.694 Y121.84 E8.20542
G1 X94.384 Y121.548 E8.21959
G1 X94.267 Y121.431 E8.22509
G1 X93.753 Y120.859 E8.25067
G1 X93.3 Y120.237 E8.27626
G1 X92.914 Y119.572 E8.30184
G1 X92.599 Y118.87 E8.32743
G1 X92.359 Y118.139 E8.35302
G1 X92.196 Y117.388 E8.37858
G1 X92.112 Y116.623 E8.40417
G1 X92.1 Y116.198 E8.41832
G1 X92.1 Y113.831 E8.49704
G1 X92.14 Y113.063 E8.52262
G1 X92.259 Y112.303 E8.54821
G1 X92.457 Y111.56 E8.57378
G1 X92.731 Y110.841 E8.59937
G1 X93.078 Y110.155 E8.62494
G1 X93.494 Y109.508 E8.65053
G1 X94.231 Y108.635 E8.68853
G1 X94.374 Y108.49 E8.6953
G1 X94.942 Y107.971 E8.72089
G0 F6000 X95.212 Y108.267
G1 F1200 X95.816 Y107.825 E8.74578
G1 X96.463 Y107.45 E8.77066
G1 X97.146 Y107.146 E8.79552
G1 X97.859 Y106.917 E8.82043
G1 X98.591 Y106.765 E8.84529
G1 X99.6 Y106.686 E8.87896
G1 X100.035 Y106.683 E8.89343
G1 X100.421 Y106.445 E8.90851
G1 X100.815 Y106.242 E8.92325
G1 X101.497 Y105.936 E8.94811
G1 X101.907 Y105.792 E8.96256
G1 X102.962 Y105.541 E8.99863
G1 X103.382 Y105.475 E9.01277
G1 X104.468 Y105.39 E9.04901
G1 X130.506 Y105.388 E9.91503
G1 X131.595 Y105.473 E9.95136
G1 X132.04 Y105.543 E9.96635
G1 X132.771 Y105.699 E9.99121
G1 X133.257 Y105.848 E10.00811
G1 X134.168 Y106.234 E10.04102
G1 X134.566 Y106.437 E10.05588
G1 X134.645 Y106.483 E10.05892
G1 X135.383 Y106.483 E10.08347
G1 X136.13 Y106.523 E10.10835
G1 X136.868 Y106.642 E10.13321
G1 X137.59 Y106.84 E10.15811
G1 X138.286 Y107.113 E10.18298
G1 X138.949 Y107.46 E10.20787
G1 X139.572 Y107.875 E10.23276
G1 X140.333 Y108.533 E10.26623
G1 X140.45 Y108.65 E10.27173
G1 X140.95 Y109.207 E10.29662
G1 X141.387 Y109.813 E10.32147
G1 X141.758 Y110.463 E10.34637
G1 X142.057 Y111.149 E10.37126
G1 X142.281 Y111.863 E10.39614
G1 X142.428 Y112.596 E10.42101
G1 X142.5 Y113.6 E10.45449
G1 X142.5 Y116.398 E10.54755
G1 X142.46 Y117.145 E10.57243
G1 X142.341 Y117.883 E10.59729
G1 X142.143 Y118.605 E10.6222
G1 X141.87 Y119.301 E10.64706
G1 X141.523 Y119.964 E10.67195
G1 X141.108 Y120.587 E10.69685
G1 X140.471 Y121.327 E10.72932
G1 X140.354 Y121.445 E10.73485
G1 X139.799 Y121.947 E10.75974
G1 X139.195 Y122.387 E10.78459
G1 X138.546 Y122.76 E10.80949
G1 X137.862 Y123.062 E10.83436
G1 X137.467 Y123.188 E10.84815
G1 X137.457 Y123.223 E10.84936
G1 X137.322 Y123.573 E10.86184
G1 X137.239 Y123.772 E10.86901
G1 X136.914 Y124.446 E10.8939
G1 X136.52 Y125.081 E10.91875
G1 X136.207 Y125.482 E10.93567
G1 X136.191 Y125.513 E10.93683
G1 X135.774 Y126.134 E10.96171
G1 X135.293 Y126.707 E10.98659
G1 X134.778 Y127.204 E11.0104
G1 X134.429 Y127.508 E11.02579
G1 X133.839 Y127.969 E11.0507
G1 X133.204 Y128.364 E11.07557
G1 X132.492 Y128.705 E11.10183
G1 X131.908 Y128.945 E11.12283
G1 X130.848 Y129.284 E11.15984
G1 X130.482 Y129.37 E11.17235
G1 X129.421 Y129.535 E11.20806
G1 X129.033 Y129.565 E11.221
G1 X128.493 Y129.586 E11.23898
G1 X106.482 Y129.587 E11.97106
G1 X105.939 Y129.566 E11.98914
G1 X105.592 Y129.539 E12.00071
G1 X104.535 Y129.375 E12.03629
G1 X104.139 Y129.282 E12.04982
G1 X103.421 Y129.072 E12.0747
G1 X103.035 Y128.924 E12.08845
G1 X102.481 Y128.692 E12.10843
G1 X101.808 Y128.366 E12.1333
G1 X101.173 Y127.971 E12.15817
G1 X100.655 Y127.571 E12.17994
G1 X100.059 Y127.065 E12.20594
G1 X99.515 Y126.551 E12.23084
G1 X99.029 Y125.982 E12.25573
G1 X98.608 Y125.366 E12.28054
G1 X98.31 Y124.876 E12.29962
G1 X97.815 Y123.897 E12.3361
G1 X97.657 Y123.512 E12.34995
G1 X97.486 Y122.979 E12.36856
G1 X97.41 Y122.958 E12.37119
G1 X96.714 Y122.685 E12.39605
G1 X96.051 Y122.338 E12.42094
G1 X95.428 Y121.923 E12.44584
G1 X94.667 Y121.265 E12.4793
G1 X94.55 Y121.148 E12.4848
G1 X94.05 Y120.591 E12.5097
G1 X93.613 Y119.985 E12.53455
G1 X93.242 Y119.335 E12.55944
G1 X92.943 Y118.649 E12.58433
G1 X92.719 Y117.935 E12.60922
G1 X92.572 Y117.202 E12.63408
G1 X92.5 Y116.198 E12.66756
G1 X92.5 Y113.831 E12.74629
G1 X92.54 Y113.084 E12.77117
G1 X92.659 Y112.346 E12.79603
G1 X92.857 Y111.624 E12.82093
G1 X93.13 Y110.928 E12.8458
G1 X93.477 Y110.265 E12.87069
G1 X93.892 Y109.642 E12.89559
G1 X94.516 Y108.916 E12.92743
G1 X94.659 Y108.771 E12.9342
G1 X95.212 Y108.267 E12.95909
G0 F6000 X95.482 Y108.563
G1 F1200 X96.07 Y108.137 E12.98324
G1 X96.701 Y107.778 E13.00738
G1 X97.368 Y107.49 E13.03155
G1 X98.063 Y107.278 E13.05571
G1 X98.776 Y107.143 E13.07985
G1 X99.602 Y107.086 E13.10739
G1 X100.148 Y107.083 E13.12555
G1 X100.604 Y106.801 E13.14338
G1 X100.998 Y106.598 E13.15812
G1 X102.001 Y106.182 E13.19424
G1 X102.029 Y106.173 E13.19522
G1 X103.024 Y105.936 E13.22924
G1 X103.444 Y105.87 E13.24338
G1 X104.468 Y105.79 E13.27754
G1 X130.506 Y105.788 E14.14357
G1 X131.533 Y105.868 E14.17783
G1 X131.978 Y105.938 E14.19281
G1 X132.688 Y106.09 E14.21696
G1 X133.128 Y106.227 E14.23229
G1 X133.986 Y106.591 E14.26329
G1 X134.384 Y106.794 E14.27815
G1 X134.537 Y106.883 E14.28403
G1 X135.383 Y106.883 E14.31217
G1 X136.108 Y106.923 E14.33632
G1 X136.825 Y107.042 E14.3605
G1 X137.524 Y107.24 E14.38466
G1 X138.197 Y107.513 E14.40881
G1 X138.836 Y107.858 E14.43297
G1 X139.433 Y108.272 E14.45713
G1 X140.05 Y108.816 E14.48449
G1 X140.167 Y108.933 E14.48999
G1 X140.651 Y109.474 E14.51414
G1 X141.074 Y110.065 E14.53831
G1 X141.428 Y110.699 E14.56246
G1 X141.711 Y111.368 E14.58662
G1 X141.919 Y112.064 E14.61078
G1 X142.049 Y112.779 E14.63495
G1 X142.1 Y113.6 E14.66231
G1 X142.1 Y116.398 E14.75537
G1 X142.06 Y117.123 E14.77952
G1 X141.941 Y117.84 E14.8037
G1 X141.743 Y118.539 E14.82786
G1 X141.47 Y119.212 E14.85202
G1 X141.125 Y119.851 E14.87617
G1 X140.711 Y120.448 E14.90033
G1 X140.187 Y121.045 E14.92675
G1 X140.07 Y121.163 E14.93228
G1 X139.531 Y121.65 E14.95644
G1 X138.941 Y122.075 E14.98063
G1 X138.309 Y122.432 E15.00477
G1 X137.641 Y122.718 E15.02894
G1 X137.13 Y122.872 E15.04669
G1 X136.952 Y123.419 E15.06582
G1 X136.869 Y123.618 E15.07299
G1 X136.553 Y124.272 E15.09715
G1 X136.167 Y124.887 E15.1213
G1 X135.869 Y125.263 E15.13726
G1 X135.826 Y125.344 E15.14031
G1 X135.416 Y125.944 E15.16448
G1 X134.943 Y126.495 E15.18863
G1 X134.515 Y126.903 E15.2083
G1 X134.166 Y127.207 E15.22369
G1 X133.593 Y127.653 E15.24784
G1 X132.974 Y128.033 E15.272
G1 X132.34 Y128.335 E15.29536
G1 X131.756 Y128.575 E15.31636
G1 X130.757 Y128.895 E15.35125
G1 X130.391 Y128.981 E15.36375
G1 X129.39 Y129.136 E15.39744
G1 X129.002 Y129.166 E15.41039
G1 X128.493 Y129.186 E15.42733
G1 X106.482 Y129.187 E16.15942
G1 X105.97 Y129.167 E16.17646
G1 X105.623 Y129.14 E16.18803
G1 X104.626 Y128.985 E16.22159
G1 X104.23 Y128.892 E16.23512
G1 X103.533 Y128.687 E16.25929
G1 X103.19 Y128.555 E16.27151
G1 X102.636 Y128.323 E16.29149
G1 X101.982 Y128.006 E16.31566
G1 X101.367 Y127.619 E16.33983
G1 X100.913 Y127.266 E16.35896
G1 X100.317 Y126.76 E16.38496
G1 X99.79 Y126.26 E16.40912
G1 X99.322 Y125.706 E16.43324
G1 X98.95 Y125.158 E16.45527
G1 X98.652 Y124.668 E16.47435
G1 X98.185 Y123.745 E16.50875
G1 X98.027 Y123.36 E16.52259
G1 X97.799 Y122.65 E16.54739
G1 X97.476 Y122.558 E16.55857
G1 X96.803 Y122.285 E16.58272
G1 X96.164 Y121.94 E16.60687
G1 X95.567 Y121.526 E16.63104
G1 X94.95 Y120.982 E16.6584
G1 X94.833 Y120.865 E16.6639
G1 X94.349 Y120.324 E16.68804
G1 X93.926 Y119.733 E16.71222
G1 X93.572 Y119.099 E16.73637
G1 X93.289 Y118.43 E16.76053
G1 X93.081 Y117.734 E16.78469
G1 X92.951 Y117.019 E16.80886
G1 X92.9 Y116.198 E16.83622
G1 X92.9 Y113.831 E16.91494
G1 X92.94 Y113.106 E16.9391
G1 X93.059 Y112.389 E16.96327
G1 X93.257 Y111.69 E16.98743
G1 X93.53 Y111.017 E17.01159
G1 X93.875 Y110.378 E17.03574
G1 X94.289 Y109.781 E17.0599
G1 X94.801 Y109.197 E17.08574
G1 X94.944 Y109.052 E17.09251
G1 X95.482 Y108.563 E17.11669
G0 F6000 X95.751 Y108.86
G1 F1200 X96.323 Y108.45 E17.1401
G1 X96.938 Y108.107 E17.16352
G1 X97.588 Y107.837 E17.18693
G1 X98.264 Y107.641 E17.21034
G1 X98.958 Y107.524 E17.23375
G1 X99.605 Y107.486 E17.2553
G1 X100.26 Y107.482 E17.27709
G1 X100.787 Y107.157 E17.29768
G1 X101.181 Y106.954 E17.31242
G1 X102.124 Y106.562 E17.34639
G1 X102.152 Y106.553 E17.34737
G1 X103.087 Y106.331 E17.37933
G1 X103.507 Y106.265 E17.39347
G1 X104.469 Y106.19 E17.42557
G1 X130.507 Y106.188 E18.29159
G1 X131.47 Y106.263 E18.32372
G1 X131.915 Y106.333 E18.3387
G1 X132.604 Y106.482 E18.36215
G1 X132.998 Y106.605 E18.37588
G1 X133.804 Y106.947 E18.405
G1 X134.202 Y107.15 E18.41986
G1 X134.43 Y107.283 E18.42864
G1 X135.383 Y107.283 E18.46033
G1 X136.086 Y107.323 E18.48375
G1 X136.78 Y107.442 E18.50717
G1 X137.455 Y107.64 E18.53057
G1 X138.104 Y107.912 E18.55397
G1 X138.718 Y108.257 E18.5774
G1 X139.289 Y108.668 E18.6008
G1 X139.767 Y109.099 E18.62221
G1 X139.884 Y109.216 E18.62771
G1 X140.353 Y109.741 E18.65112
G1 X140.759 Y110.316 E18.67453
G1 X141.097 Y110.934 E18.69796
G1 X141.364 Y111.585 E18.72137
